X:1
T: Lewis Bridal Song
C:
R:Reel
Q: 232
K:D
M:4/4
L:1/8
f2|A3A A2 B2|d2 e2 f4|e2 d2 B2 d2|f2 e2 f2 a2|A3A A2 B2|d2 e2 f4|e2 d2 B2 G2|A4 A4|
a3a a2 b2|a2 g2 f4|e2 d2 B2 d2|f2 e2 f4|a3a a2 b2|a2 g2 f4|e2 d2 B2 G2|A4 A2 f2|
A3A A2 B2|d2 e2 f4|e2 d2 B2 d2|f2 e2 f2 a2|A3A A2 B2|d2 e2 f4|e2 d2 B2 G2|A4 A4|
a3a a2 b2|a2 g2 f4|e2 d2 B2 d2|f2 e2 f4|a3a a2 b2|a2 g2 f4|e2 d2 B2 G2|A2 Bc de fg|
a3a a2 b2|a2 g2 f4|e2 d2 B2 d2|f2 e2 f4|a3a a2 b2|a2 g2 f2 fg|a2 g2 f2 e2|d4 d4||
